dist/img/sprites/hRequest.svg

<svg width="32" height="32" viewBox="0 0 32 32" fill="none" xmlns="http://www.w3.org/2000/svg">
<g clip-path="url(#clip0_730_5335)">
<path d="M16.2106 1.91006C13.6006 -0.639941 9.35062 -0.639941 6.74062 1.91006C4.37062 4.22006 4.13063 7.89006 6.17062 10.4701L2.64062 13.9101C2.48063 14.0701 2.39062 14.2801 2.39062 14.5001C2.39062 14.7201 2.48062 14.9401 2.65062 15.1001C2.82062 15.2701 3.05062 15.3601 3.28062 15.3601C3.51062 15.3601 3.74062 15.2701 3.92062 15.1001L7.43062 11.6801C10.0906 13.6601 13.8506 13.4101 16.2306 11.1001C17.4906 9.87006 18.1806 8.24006 18.1806 6.50006C18.1806 4.76006 17.4906 3.13006 16.2306 1.90006L16.2106 1.91006ZM16.3806 6.51006C16.3806 7.80006 15.8706 9.01006 14.9406 9.92006C13.0306 11.7801 9.92062 11.7801 8.01062 9.92006C7.08062 9.01006 6.57063 7.80006 6.57063 6.51006C6.57063 5.22006 7.08062 4.01006 8.01062 3.10006C9.92062 1.24006 13.0306 1.24006 14.9406 3.10006C15.8706 4.01006 16.3806 5.22006 16.3806 6.51006Z" fill="#4B8125"/>
<path d="M1.57984 21.3H7.51984C7.92984 21.3 8.25984 21.68 8.25984 22.16V31.01C8.25984 31.48 7.92984 31.8701 7.51984 31.8701H1.57984C1.16984 31.8701 0.839844 31.49 0.839844 31.01V22.16C0.839844 21.69 1.16984 21.3 1.57984 21.3Z" fill="#4B8125"/>
<path d="M13.0291 16.02H18.9691C19.3791 16.02 19.7091 16.4 19.7091 16.88V31.02C19.7091 31.49 19.3791 31.88 18.9691 31.88H13.0291C12.6191 31.88 12.2891 31.5 12.2891 31.02V16.88C12.2891 16.41 12.6191 16.02 13.0291 16.02Z" fill="#4B8125"/>
<path d="M24.4802 8.08997H30.4202C30.8302 8.08997 31.1602 8.46997 31.1602 8.94997V31.01C31.1602 31.48 30.8302 31.87 30.4202 31.87H24.4802C24.0702 31.87 23.7402 31.49 23.7402 31.01V8.94997C23.7402 8.47997 24.0702 8.08997 24.4802 8.08997Z" fill="#4B8125"/>
</g>
<defs>
<clipPath id="clip0_730_5335">
<rect width="32" height="32" fill="white"/>
</clipPath>
</defs>
</svg>

<svg width="32" height="32" viewBox="0 0 32 32" fill="none" xmlns="http://www.w3.org/2000/svg"><g clip-path="url(#clip0_730_5335)" fill="#4B8125"><path d="M16.21 1.91c-2.61-2.55-6.86-2.55-9.47 0a6.381 6.381 0 00-.57 8.56l-3.53 3.44c-.16.16-.25.37-.25.59 0 .22.09.44.26.6.17.17.4.26.63.26.23 0 .46-.09.64-.26l3.51-3.42c2.66 1.98 6.42 1.73 8.8-.58a6.377 6.377 0 001.95-4.6c0-1.74-.69-3.37-1.95-4.6l-.02.01zm.17 4.6c0 1.29-.51 2.5-1.44 3.41-1.91 1.86-5.02 1.86-6.93 0a4.735 4.735 0 01-1.44-3.41c0-1.29.51-2.5 1.44-3.41 1.91-1.86 5.02-1.86 6.93 0 .93.91 1.44 2.12 1.44 3.41zM1.58 21.3h5.94c.41 0 .74.38.74.86v8.85c0 .47-.33.86-.74.86H1.58c-.41 0-.74-.38-.74-.86v-8.85c0-.47.33-.86.74-.86zm11.45-5.28h5.94c.41 0 .74.38.74.86v14.14c0 .47-.33.86-.74.86h-5.94c-.41 0-.74-.38-.74-.86V16.88c0-.47.33-.86.74-.86zm11.45-7.93h5.94c.41 0 .74.38.74.86v22.06c0 .47-.33.86-.74.86h-5.94c-.41 0-.74-.38-.74-.86V8.95c0-.47.33-.86.74-.86z"/></g><defs><clipPath id="clip0_730_5335"><path fill="#fff" d="M0 0h32v32H0z"/></clipPath></defs></svg>
